X:1

T:Whole Bunch of Keys

L:1/8

M:2/4

N:AEAE Tuning

N:Notated as fingered, not as sounded.

Z:Andrew Kuntz

K:A

(A|A/)c/e/f/ g/f/g/f/|e/d/e/(a/ a/)g/a/f/|e/c/e/f/ g/f/g/f/|e/c/B/c/ A:|

|:(3D/E/F/|G/E/G/G/ [G/c/]G[G/c/]G/|B/A/F/G/ B/A/F/G/|G/E/G/G/ c/B/c/A/|

B/A/E/F/ [GA](3D/E/F/|G/E/G/G/ [G/c/]G[G/c/]G/|B/A/F/G/ B/A/F/G/|G/E/G/G/ c/B/c/A/|B/A/E/F/ [GA]:|

 

WHOLE CHICKEN IN THE SOUP, THE (An Chearc ar fad ins an t-Anraith).  Irish, Single Jig. G Major. Standard tuning. AABB’. Breathnach (CRÉ II), 1976; No. 63. Breathnach (Folk Music and Dances of Ireland), 1971; 19.

